X:1
T:Amor che deggio far
T:Anonymous
T:Source: Musica divina---Anversa---P.Phalesio & G.Bellero---1583. Editor: André Vierendeels (03/12/13).
T:-natural
T:Amor che deggio far
C:Anonymus
%%score [ 1 2 3 4 ]
L:1/8
Q:1/4=104
M:2/2
K:F
V:1 treble nm="Canto" snm="C"
V:2 treble nm="Alto" snm="A"
V:3 treble-8 nm="Tenor" snm="T"
V:4 bass nm="Basso" snm="B"
V:1
 G4 B4- | B2 A2 A2 =B2 | c4 z2 c2- | c2 B4 A2- | A2 G2 A4 | z4 d4- | d2 c4 B2 | A8 | A8 | A4 B4- | %10
w: A- mor|_ che deg- gio|far che-|_ mi con-|* si- gli,|che|_ mi con-|si-|gli,|s'io son|
 B2 A4 G2- | G2 F2 _E4 | D4 d4 | e6 d2- | d2 c4 B2 | c4 c4 | z4 c4 | F4 G4 | A8 | A4 A4 | B4 A4- | %21
w: _ pri- vo|_ di lu-|ce, s'io|son pri-|* vo di|lu- ce|e|di con-|for-|to, e|di con-|
 A4 G4- | G4 ^F4 | G8 |: d8- | d8 | c8- | c4 B4 | A4 G4 | B4 c4 | d8- | d8 | z4 d4- | d2 A2 A4 | %34
w: * for-||to,|deh,|_|per|_ pie-|ta- t'al|me- *|no|_|ren-|* de m'il|
 =B8 | z4 =B4- | B2 =B2 c4 | c4 B4 | A2 d2 B4 | G4 c4- | c4 B4- | B4 F4 | B4 A4- | A4 G4- | %44
w: cor,|ren-|* de m'il|cor che|per lui mo-|ro, che|_ per|_ lui|mo- ro|_ a|
"^#" G4 F4 | G8 :| %46
w: _ tor-|to,|
V:2
 D4 G4- | G2 F2 F2 G2 | G4 A4 | G3 F E2 F2 | D4 E4 | ^F4 A4- | A4 G4 | F2 ED E4 | ^F8 | ^F4 G4 | %10
w: A- mor|_ che deg- gio|far che|mi _ _ con-|si- gli,|che mi|_ con-|si- * * *|gli,|s'io son|
"^-natural" D2 D2 CB, ^C2 | D4 G4 | G4 G4 | G4 G4 | E2 ^F2 G4 | A4 A4 | G4 A4 | D8 | E8 | ^F4 F4 | %20
w: pri- vo _ _ _|di lu-|ce, s'io|son pri-|vo di lu-|ce e|di con-|for-||to, e|
 G4 D4 | D8- | D8 | D8 |: B8- | B8 | A8- | A4 F4 | F4 D4 | G6 A2 | B4 A2 G2 | A8 | z4 A4- | %33
w: di con-|for-||to,|deh,|_|per|_ pie-|ta- t'al|me- *||no|ren-|
 A2 ^F2 F4 | G8 | z4 G4- | G2 G2 G4 | A4 G4 | ^F2 F2 G4 | E6 F2 | G4 G4 | F4 F4 | G4 F4 | D8- | %44
w: * de m'il|cor,|ren-|* de m'il|cor che|per lui mo-|ro, che|per lui|mo- ro|a tor-||
 D8 | D8 :| %46
w: |to,|
V:3
 =B4 d4- | d2 d2 d2 d2 | e4 f4 | d4 ^c2 f2- | fe d3 c/B/ ^c2 | d4 z2 f2 | f3 e d4 | ^c2 d4 c2 | %8
w: A- mor|_ che deg- gio|far che|mi con- si-||gli, che|mi _ _|con- si- *|
 d8 | d4 d4 | f2 F2 G4 | A4 c4 | =B4 d4 | c4 B4 | A4 d4 | f4 f4 | d4 f4- | f2 e2 d4- | %18
w: gli,|s'io son|pri- vo di|lu- *|ce, s'io|son pri-|vo di|lu- ce|e di|_ con- for-|
"^-natural" d2 cB c4 | d4 d4 | d4 A4 | B8 | A8 | G8 |: f8- | f8 | f8- | f4 d4 | c4 B4- | %29
w: |to, e|di con-|for-||to.|deh,|_|per|_ pie-|ta- t'al|
 B2 A2 G4- | G4 F2 E2 | ^F8 |"^#" z4 f4- | f2 d2 d4 | d8 | z4 d4- | d2 d2 e4 | f4 d4 | d2 A2 B4 | %39
w: _ me- *||no|ren-|* de m'il|cor,|ren-|* de m'il|cor che|per lui mo-|
 c4 G4 | d8- | d4 d4 | d4 A4 | B8 | A8 | G8 :| %46
w: ro, che|per|_ lui|mo- ro'a|tor-||to,|
V:4
 G,,4 G,4- | G,2 D,2 D,2 G,2 | C,4 F,4 | G,4 A,4 | B,4 A,4 | D,8 | F,4 G,4 | A,8 | D,8 | D,4 G,,4 | %10
w: A- mor|_ che deh- gio|far che|mi con-|si gli,|che|mi con-|si-|gli,|s'io son|
 D,4 _E,4 | D,4 C,4 | G,,4 G,4 | C,4 G,4 | A,4 G,4 | F,4 F,4 | G,4 F,4 | B,8 | A,8 | D,4 D,4 | %20
w: pri- vo|di lu-|ce, s'io|son pri-|vo di|lu- ce|e di|con-|for-|to, e|
 G,,4 D,4 | B,,6 C,2 | D,8 | G,,8 |: B,,8- | B,,8 | F,8- | F,4 B,,4 | F,4 G,4 | _E,8 | D,8- | D,8 | %32
w: di con-|for- *||to.|deh,|_|per|_ pie-|ta- t'al|me-|no|_|
 z4 D,4- | D,2 D,2 D,4 | G,,8 | z4 G,4- | G,2 G,2 C,4 | F,4 G,4 | D,2 D,2 G,4 | C,8 | G,,8 | %41
w: ren-|* de m'il|cor,|ren-|* de m'il|cor che|per lui mo-|ro,|che|
 B,,6 A,,2 | G,,4 D,4 | B,,4 G,,4 | D,8 | G,,8 :| %46
w: per mi|mo- ro|a _|tor-|to,|

